moji/eo.svg

<?xml version="1.0" encoding="UTF-8"?>
<!-- Created with Inkscape (http://www.inkscape.org/) -->
<svg width="78" height="62" version="1.1" viewBox="0 0 20.638 16.404" xmlns="http://www.w3.org/2000/svg">
 <g transform="translate(-24.096 -165.28)">
  <g id="eo" transform="matrix(.26458 0 0 .26458 23.566 164.75)" fill="none" fill-rule="evenodd">
   <g transform="translate(6,6)" fill-rule="nonzero">
    <path d="m57.437-2h-44.874c-4.9348 0-6.6962 0.58451-8.4928 1.5453-1.9507 1.0433-3.4817 2.5742-4.5249 4.5249-0.96081 1.7966-1.5453 3.5579-1.5453 8.4928v28.874c0 4.9348 0.58451 6.6962 1.5453 8.4928 1.0433 1.9507 2.5742 3.4817 4.5249 4.5249 1.7966 0.96081 3.5579 1.5453 8.4928 1.5453h44.874c4.9348 0 6.6962-0.58451 8.4928-1.5453 1.9507-1.0433 3.4817-2.5742 4.5249-4.5249 0.96081-1.7966 1.5453-3.5579 1.5453-8.4928v-28.874c0-4.9348-0.58451-6.6962-1.5453-8.4928-1.0433-1.9507-2.5742-3.4817-4.5249-4.5249-1.7966-0.96081-3.5579-1.5453-8.4928-1.5453z" fill="#7ac70c" stroke="#fff" stroke-width="4"/>
    <path d="m12.563 0h22.437v27c0 2.2091-1.7909 4-4 4h-31v-18.437c0-4.3684 0.45485-5.9525 1.309-7.5496 0.8541-1.597 2.1075-2.8504 3.7045-3.7045s3.1811-1.309 7.5496-1.309z" fill="#eee"/>
    <path d="m16.597 22.712-3.4173 1.7966c-1.0414 0.54748-2.3294 0.14711-2.8769-0.89427-0.21801-0.41468-0.29324-0.88967-0.21404-1.3514l0.65265-3.8052c0.04822-0.28114-0.04499-0.56801-0.24925-0.76711l-2.7647-2.6949c-0.84249-0.82123-0.85973-2.1699-0.038504-3.0124 0.32702-0.33548 0.75551-0.55381 1.2191-0.62118l3.8207-0.55518c0.28228-0.04102 0.52631-0.21831 0.65255-0.4741l1.7087-3.4621c0.52069-1.055 1.7981-1.4882 2.8531-0.96751 0.42012 0.20734 0.76017 0.54739 0.96751 0.96751l1.7087 3.4621c0.12624 0.25579 0.37026 0.43308 0.65255 0.4741l3.8207 0.55518c1.1643 0.16918 1.971 1.2502 1.8018 2.4145-0.06737 0.46363-0.2857 0.89212-0.62118 1.2191l-2.7647 2.6949c-0.20426 0.19911-0.29747 0.48597-0.24925 0.76711l0.65265 3.8052c0.19889 1.1596-0.57992 2.2609-1.7395 2.4597-0.46176 0.0792-0.93674 4e-3 -1.3514-0.21404l-3.4173-1.7966c-0.25248-0.13274-0.55411-0.13274-0.80659 0z" fill="#7ac70c"/>
   </g>
  </g>
 </g>
</svg>

<?xml version="1.0" encoding="UTF-8" standalone="no"?>
<!-- Created with Inkscape (http://www.inkscape.org/) -->

<svg
   width="78"
   height="62"
   viewBox="0 0 20.6375 16.404167"
   version="1.1"
   id="svg1941"
   xmlns="http://www.w3.org/2000/svg"
   xmlns:svg="http://www.w3.org/2000/svg">
  <defs
     id="defs1938" />
  <g
     id="layer1"
     transform="translate(-24.095536,-165.28363)">
    <g
       id="eo"
       fill="none"
       fill-rule="evenodd"
       transform="matrix(0.26458333,0,0,0.26458333,23.566369,164.75446)">
      <g
         transform="translate(6,6)"
         fill-rule="nonzero"
         id="g385">
        <path
           d="M 57.437,-2 H 12.563 C 7.6282,-2 5.8668,-1.41549 4.0702,-0.4547 2.1195,0.5886 0.5885,2.1195 -0.4547,4.0702 -1.41551,5.8668 -2,7.6281 -2,12.563 v 28.874 c 0,4.9348 0.58451,6.6962 1.5453,8.4928 1.0433,1.9507 2.5742,3.4817 4.5249,4.5249 C 5.8668,55.41551 7.6281,56 12.563,56 h 44.874 c 4.9348,0 6.6962,-0.58451 8.4928,-1.5453 1.9507,-1.0433 3.4817,-2.5742 4.5249,-4.5249 C 71.41551,48.1332 72,46.3719 72,41.437 V 12.563 C 72,7.6282 71.41549,5.8668 70.4547,4.0702 69.4114,2.1195 67.8805,0.5885 65.9298,-0.4547 64.1332,-1.41551 62.3719,-2 57.437,-2 Z"
           fill="#7ac70c"
           stroke="#ffffff"
           stroke-width="4"
           id="path379" />
        <path
           d="M 12.563,0 H 35 v 27 c 0,2.2091 -1.7909,4 -4,4 H 0 V 12.563 C 0,8.1946 0.45485,6.6105 1.309,5.0134 2.1631,3.4164 3.4165,2.163 5.0135,1.3089 6.6105,0.4548 8.1946,-1e-4 12.5631,-1e-4 Z"
           fill="#eeeeee"
           id="path381" />
        <path
           d="m 16.597,22.712 -3.4173,1.7966 c -1.0414,0.54748 -2.3294,0.14711 -2.8769,-0.89427 -0.21801,-0.41468 -0.29324,-0.88967 -0.21404,-1.3514 l 0.65265,-3.8052 c 0.04822,-0.28114 -0.04499,-0.56801 -0.24925,-0.76711 l -2.7647,-2.6949 c -0.84249,-0.82123 -0.85973,-2.1699 -0.038504,-3.0124 0.32702,-0.33548 0.75551,-0.55381 1.2191,-0.62118 l 3.8207,-0.55518 c 0.28228,-0.04102 0.52631,-0.21831 0.65255,-0.4741 l 1.7087,-3.4621 c 0.52069,-1.055 1.7981,-1.4882 2.8531,-0.96751 0.42012,0.20734 0.76017,0.54739 0.96751,0.96751 l 1.7087,3.4621 c 0.12624,0.25579 0.37026,0.43308 0.65255,0.4741 l 3.8207,0.55518 c 1.1643,0.16918 1.971,1.2502 1.8018,2.4145 -0.06737,0.46363 -0.2857,0.89212 -0.62118,1.2191 l -2.7647,2.6949 c -0.20426,0.19911 -0.29747,0.48597 -0.24925,0.76711 l 0.65265,3.8052 c 0.19889,1.1596 -0.57992,2.2609 -1.7395,2.4597 -0.46176,0.0792 -0.93674,0.004 -1.3514,-0.21404 l -3.4173,-1.7966 c -0.25248,-0.13274 -0.55411,-0.13274 -0.80659,0 z"
           fill="#7ac70c"
           id="path383" />
      </g>
    </g>
  </g>
</svg>
